X:7621
%16703
T:The First New Dutch Skipper
B:Walsh
M:6/4
L:1/8
N:
K:Cmaj
C4 G2 E4 C2|C4 G2 E4 C2|G2 A2 B2 c4 G2 | G2 A2 B2 c4 C2|C4 G2 E4 C2|\
C4 G2 E4 C2 | G2 A2 B2 c2 B2 A2|D2 G2 ^F2 G6:: d4 d2 d4 B2| c4 d2 e6|\
d2 e2 f2 e6| d2 e2 f2 e6| f2 e2 d2 f2 e2 d2 | e2 d2 c2 B4 A2| c4 G
